img/icons/service-icon2.svg

<svg width="60" height="60" viewBox="0 0 60 60" fill="none" xmlns="http://www.w3.org/2000/svg">
<path fill-rule="evenodd" clip-rule="evenodd" d="M15 5C16.3807 5 17.5 6.09199 17.5 7.43902V14.2597L23.9428 11.3264C24.7171 10.9739 25.6222 11.0316 26.3429 11.4793C27.0636 11.9271 27.5 12.703 27.5 13.5366V23.2927H32.5V8.65854C32.5 7.3115 33.6193 6.21951 35 6.21951H47.5C48.8807 6.21951 50 7.3115 50 8.65854V50.122H52.5C53.8807 50.122 55 51.2139 55 52.561C55 53.908 53.8807 55 52.5 55H7.5C6.11929 55 5 53.908 5 52.561C5 51.2139 6.11929 50.122 7.5 50.122H10V19.2276C10 18.28 10.5626 17.4182 11.4428 17.0174L12.5 16.5361V7.43902C12.5 6.09199 13.6193 5 15 5ZM45 50.122V11.0976H37.5V23.2927C38.8807 23.2927 40 24.3847 40 25.7317V50.122H45ZM35 28.1707H25V50.122H35V28.1707ZM20 50.122V25.7317C20 24.3847 21.1193 23.2927 22.5 23.2927V17.3663L15 20.781V50.122H20Z" fill="#E3000F"/>
</svg>

<svg width="60" height="60" fill="none" xmlns="http://www.w3.org/2000/svg"><path fill-rule="evenodd" clip-rule="evenodd" d="M15 5c1.38 0 2.5 1.092 2.5 2.439v6.82l6.443-2.933a2.554 2.554 0 012.4.153 2.425 2.425 0 011.157 2.058v9.756h5V8.659c0-1.348 1.12-2.44 2.5-2.44h12.5c1.38 0 2.5 1.092 2.5 2.44v41.463h2.5c1.38 0 2.5 1.092 2.5 2.439S53.88 55 52.5 55h-45C6.12 55 5 53.908 5 52.561s1.12-2.439 2.5-2.439H10V19.228c0-.948.563-1.81 1.443-2.21l1.057-.482V7.44C12.5 6.092 13.62 5 15 5zm30 45.122V11.098h-7.5v12.195c1.38 0 2.5 1.092 2.5 2.439v24.39h5zM35 28.171H25v21.951h10V28.171zM20 50.122v-24.39c0-1.347 1.12-2.44 2.5-2.44v-5.926L15 20.781v29.341h5z" fill="#E3000F"/></svg>
